src/assets/images/regenerate.svg

<svg fill="none" height="13" viewBox="0 0 13 13" width="13" xmlns="http://www.w3.org/2000/svg"><g stroke="#fff" stroke-linejoin="round"><path d="m1.30078 2.6001v3h3"/><path d="m12.3008 10.6001v-3h-3.00002"/><path d="m11.0458 5.10014c-.2536-.71661-.6846-1.3573-1.25275-1.8623-.56817-.50499-1.255-.85782-1.99641-1.02558-.74141-.16775-1.51324-.14495-2.24345.06626-.73022.21122-1.39504.60397-1.93241 1.14162l-2.32 2.18m11.00002 2-2.32002 2.18c-.53737.53766-1.20219.93036-1.9324 1.14156-.73022.2113-1.50205.2341-2.24346.0663-.74141-.1677-1.42824-.5206-1.99641-1.02557-.56816-.505-.99914-1.14569-1.25273-1.86229"/></g></svg>

<svg width="13" height="13" viewBox="0 0 13 13" fill="none" xmlns="http://www.w3.org/2000/svg">
<g clipPath="url(#clip0_500_112)">
<path d="M1.30078 2.6001V5.6001H4.30078" stroke="white" strokeWidth="0.75" strokeLinecap="round" stroke-linejoin="round"/>
<path d="M12.3008 10.6001V7.6001H9.30078" stroke="white" strokeWidth="0.75" strokeLinecap="round" stroke-linejoin="round"/>
<path d="M11.0458 5.10014C10.7922 4.38353 10.3612 3.74284 9.79305 3.23784C9.22488 2.73285 8.53805 2.38002 7.79664 2.21226C7.05523 2.04451 6.2834 2.06731 5.55319 2.27852C4.82297 2.48974 4.15815 2.88249 3.62078 3.42014L1.30078 5.60014M12.3008 7.60014L9.98078 9.78014C9.44341 10.3178 8.77859 10.7105 8.04838 10.9217C7.31816 11.133 6.54633 11.1558 5.80492 10.988C5.06351 10.8203 4.37668 10.4674 3.80851 9.96243C3.24035 9.45743 2.80937 8.81674 2.55578 8.10014" stroke="white" strokeWidth="0.75" strokeLinecap="round" stroke-linejoin="round"/>
</g>
<defs>
<clipPath id="clip0_500_112">
<rect width="12" height="12" fill="white" transform="translate(0.800781 0.600098)"/>
</clipPath>
</defs>
</svg>
